Adwaita++/actions/22/resource-group-new.svg

<svg height="22" viewBox="0 0 22 22" width="22" xmlns="http://www.w3.org/2000/svg">
  <path d="m6 2c-1.6569 0-3 1.3432-3 3s1.3431 3 3 3 3-1.3432 3-3-1.3431-3-3-3zm5 1.9511719c-.38828 0-.753294.0893022-1.0839844.2382812.0546.262.0839844.5330469.0839844.8105469 0 1.1021-.4541938 2.1041781-1.1835938 2.8300781.4603001.7037 1.2625938 1.1738282 2.1835938 1.1738281 1.4327 0 2.59375-1.1302906 2.59375-2.5253906s-1.16105-2.5273437-2.59375-2.5273437zm-5 6.0488281c-6.0002.0034-6 4.003906-6 4.003906v1c.88052.0026 13.517-.002006 10-.003906-.55226-.000055-.99994-.44774-1-1v-2c.0000552-.55226.44774-.99994 1-1h.154297c-.8883001-.573-2.199197-1.001-4.154297-1zm6 0v2h-2v2h2v2h2v-2h2v-2h-2v-2z" fill="#444" transform="translate(3 3)"/>
</svg>

<svg xmlns="http://www.w3.org/2000/svg" width="22" height="22" viewBox="0 0 22 22">
 <defs>
  <style id="current-color-scheme" type="text/css">
   .ColorScheme-Text { color:#444444; } .ColorScheme-Highlight { color:#4285f4; }
  </style>
 </defs>
 <path style="fill:currentColor" class="ColorScheme-Text" d="M 6 2 C 4.3431 2 3 3.3432 3 5 C 3 6.6568 4.3431 8 6 8 C 7.6569 8 9 6.6568 9 5 C 9 3.3432 7.6569 2 6 2 z M 11 3.9511719 C 10.61172 3.9511719 10.246706 4.0404741 9.9160156 4.1894531 C 9.9706156 4.4514531 10 4.7225 10 5 C 10 6.1021 9.5458062 7.1041781 8.8164062 7.8300781 C 9.2767063 8.5337781 10.079 9.0039063 11 9.0039062 C 12.4327 9.0039062 13.59375 7.8736156 13.59375 6.4785156 C 13.59375 5.0834156 12.4327 3.9511719 11 3.9511719 z M 6 10 C -0.0002 10.0034 0 14.003906 0 14.003906 L 0 15.003906 C 0.88052 15.006506 13.517 15.0019 10 15 C 9.44774 14.999945 9.00006 14.55226 9 14 L 9 12 C 9.0000552 11.44774 9.44774 11.00006 10 11 L 10.154297 11 C 9.2659969 10.427 7.9551 9.999 6 10 z M 12 10 L 12 12 L 10 12 L 10 14 L 12 14 L 12 16 L 14 16 L 14 14 L 16 14 L 16 12 L 14 12 L 14 10 L 12 10 z" transform="translate(3 3)"/>
</svg>
